X: 903
T: Snouts and Ears of America, The
B: jims roots
M:C|
L:1/8
Q: 1/4=100
K:D
V:1 
(3ABc S|:"D"d2D2 D3E | F2A2 d2ed | "A"[c2e][A2e] ABcd | e2A2 A2Bc |
"D"dcBA "G"G2F2 | "A"E2[A2D2] ABAG | "D"[F2A][D2A]"A7"[E2A][DA][EA] | [1 "D"F[DD] [D2D][D2D] (3ABc:|[2 "D"F[DD] [D2D][D3D]E||
|: "D"F2z2 D3E | FEFG ABAF| "A"G2[E2C] [E3C]E | "D"FABc dBAG |
"D"F2D2 D3E | FEFG ABAF | "A7"G2E2 ABAG |[1 "D"[F2A][D2A][D2A] DE:|[2 "D"[F2A][D2A][DA]z2 !D.S.!(3ABc |]
% abcbook-tune_id 6298c287e89cfa2914465eec


% abcbook-boost 0
% abcbook-tablature 
% abcbook-transpose 
% abcbook-lastupdated 1654178440565
% abcbook-soundfonts 
% abcbook-repeats 1


